src/assets/fleet-icons/photo-upload.svg

<svg width="24" height="24" viewBox="0 0 24 24" fill="none" xmlns="http://www.w3.org/2000/svg">
    <path
        d="M11.25 19.25H6.75C5.64543 19.25 4.75 18.3546 4.75 17.25V16M4.75 16V6.75C4.75 5.64543 5.64543 4.75 6.75 4.75H17.25C18.3546 4.75 19.25 5.64543 19.25 6.75V12.25L16.5856 9.43947C15.7663 8.48581 14.2815 8.51598 13.5013 9.50017L13.4914 9.51294C13.3977 9.63414 11.9621 11.4909 10.9257 12.8094M4.75 16L7.49619 12.5067C8.2749 11.5161 9.76453 11.4837 10.5856 12.4395L10.9257 12.8094M10.9257 12.8094L12.25 14.25M10.9257 12.8094C10.9221 12.814 10.9186 12.8185 10.915 12.823"
        stroke="currentColor" stroke-width="1.5" stroke-linecap="round" stroke-linejoin="round" />
    <path d="M17 14.75V19.25" stroke="currentColor" stroke-width="1.5" stroke-linecap="round" stroke-linejoin="round" />
    <path d="M19.25 17L14.75 17" stroke="currentColor" stroke-width="1.5" stroke-linecap="round"
        stroke-linejoin="round" />
</svg>

<svg width="24" height="24" fill="none" xmlns="http://www.w3.org/2000/svg">
    <path
        d="M11.25 19.25h-4.5a2 2 0 0 1-2-2V16m0 0V6.75a2 2 0 0 1 2-2h10.5a2 2 0 0 1 2 2v5.5l-2.664-2.81a2 2 0 0 0-3.085.06l-.01.013c-.093.121-1.529 1.978-2.565 3.296M4.75 16l2.746-3.493a2 2 0 0 1 3.09-.067l.34.37m0 0 1.324 1.44m-1.324-1.44-.011.013M17 14.75v4.5M19.25 17h-4.5"
        stroke="currentColor" stroke-width="1.5" stroke-linecap="round" stroke-linejoin="round" />
</svg>
